X: 36045
T: Scartaglen, The
R: reel
M: 4/4
K: Dmajor
DFEF D2dB|cAAG EFFE|DFEF D2dB|cAGE EDD2|
DFEF D2dB|cAAG EFGE|Addc dfed|cAGE EDD2:|
|:f3e fage|f2ge afde|effe fage|
fdec Add2|f2fe fage|fdge afge|
fage dfed|1 dcAG EDD2:|2 dcAG EFFE||"last time" D4z4||

